resources/icons/16px/shapes.svg

<?xml version="1.0" encoding="UTF-8"?>
<svg width="16px" height="16px" viewBox="0 0 16 16" version="1.1" xmlns="http://www.w3.org/2000/svg" xmlns:xlink="http://www.w3.org/1999/xlink">
    <g stroke="none" stroke-width="1" fill="none" fill-rule="evenodd">
        <path d="M5.92060936,8.13853452 C6.36045741,7.85736416 6.9263142,8.01776189 7.18448588,8.49679286 L7.18448588,8.49679286 L9.87294507,13.4851604 C9.95613926,13.6395251 10,13.8152733 10,13.9942643 C10,14.5497168 9.58654827,15 9.07652973,15 L9.07652973,15 L3.92364961,15 C3.77092663,15 3.62058774,14.9587486 3.48609611,14.87994 C3.03696116,14.6167587 2.86876472,14.0068775 3.11041885,13.5177323 L3.11041885,13.5177323 L5.57483977,8.52936479 C5.65503309,8.36704116 5.77464506,8.23184136 5.92060936,8.13853452 Z M12,4 C13.6568542,4 15,5.34314575 15,7 C15,8.65685425 13.6568542,10 12,10 C10.3431458,10 9,8.65685425 9,7 C9,5.34314575 10.3431458,4 12,4 Z M6,1 C6.55228475,1 7,1.44771525 7,2 L7,6 C7,6.55228475 6.55228475,7 6,7 L2,7 C1.44771525,7 1,6.55228475 1,6 L1,2 C1,1.44771525 1.44771525,1 2,1 L6,1 Z" fill="#000000"></path>
    </g>
</svg>

<svg xmlns="http://www.w3.org/2000/svg" viewBox="0 0 16 16">
  <path d="M5.92 8.139c.44-.282 1.006-.121 1.264.358l2.689 4.988c.083.155.127.33.127.51C10 14.55 9.587 15 9.077 15H3.924a.86.86 0 0 1-.438-.12c-.449-.263-.617-.873-.376-1.362l2.465-4.989c.08-.162.2-.297.346-.39M12 4a3 3 0 1 1 0 6 3 3 0 0 1 0-6M6 1a1 1 0 0 1 1 1v4a1 1 0 0 1-1 1H2a1 1 0 0 1-1-1V2a1 1 0 0 1 1-1z"/>
</svg>
